X: 17186
T: Henry Blood's
R: reel
M: 4/4
K: Bminor
B2FB AFEF|AEFA DFBF|B2dB AFEF|AFF2 EFF2|
B2FB AFEF|AEFA DFBd|edcA (3BAG AF|BAFE FBB2:|
BFF2 dFF2|BFBd eAce|dFF2 BFBd|edcA BFBd|
BFF2 dFBd|eAce f2Bd|edcA (3BAG AF|BAFE FBB2:|

